img/quote.svg

<svg width="117" height="103" viewBox="0 0 117 103" fill="none" xmlns="http://www.w3.org/2000/svg">
<path opacity="0.1" d="M32.3345 64.6942C38.0073 64.6942 42.4036 66.5386 45.5236 70.2273C48.9273 73.6322 50.6291 78.1722 50.6291 83.8471C50.6291 90.0895 48.6436 94.9132 44.6727 98.3182C40.9855 101.439 35.5964 103 28.5055 103C19.7127 103 12.7636 99.595 7.65818 92.7851C2.55273 85.9752 0 76.3278 0 63.843C0 51.9256 2.55273 41.0014 7.65818 31.0702C13.0473 20.8554 20.9891 10.6405 31.4836 0.425614C31.7673 0.141871 32.1927 0 32.76 0C33.6109 0 34.32 0.425623 34.8873 1.27687C35.4545 2.1281 35.4545 2.83746 34.8873 3.40497C20.9891 17.5923 14.04 34.3333 14.04 53.6281C14.04 61.573 15.4582 67.3898 18.2945 71.0785C20.8473 66.8223 25.5273 64.6942 32.3345 64.6942ZM98.7054 64.6942C104.378 64.6942 108.775 66.5386 111.895 70.2273C115.298 73.6322 117 78.1722 117 83.8471C117 90.0895 115.015 94.9132 111.044 98.3182C107.356 101.439 101.967 103 94.8764 103C86.0836 103 79.1345 99.595 74.0291 92.7851C68.9236 85.9752 66.3709 76.3278 66.3709 63.843C66.3709 51.9256 68.9236 41.0014 74.0291 31.0702C79.4182 20.8554 87.36 10.6405 97.8545 0.425614C98.1382 0.141871 98.5636 0 99.1309 0C99.9818 0 100.691 0.425623 101.258 1.27687C101.825 2.1281 101.825 2.83746 101.258 3.40497C87.36 17.5923 80.4109 34.3333 80.4109 53.6281C80.4109 61.573 81.8291 67.3898 84.6655 71.0785C87.2182 66.8223 91.8982 64.6942 98.7054 64.6942Z" fill="#4770A0"/>
</svg>

<svg width="117" height="103" fill="none" xmlns="http://www.w3.org/2000/svg"><path opacity=".1" d="M32.33 64.7c5.68 0 10.07 1.84 13.2 5.53 3.4 3.4 5.1 7.94 5.1 13.62 0 6.24-1.99 11.06-5.96 14.47C41 101.44 35.6 103 28.51 103c-8.8 0-15.75-3.4-20.85-10.21C2.56 85.98 0 76.33 0 63.84 0 51.93 2.55 41 7.66 31.07 13.05 20.86 20.99 10.64 31.48.43c.29-.29.71-.43 1.28-.43.85 0 1.56.43 2.13 1.28.56.85.56 1.56 0 2.12-13.9 14.2-20.85 30.93-20.85 50.23 0 7.94 1.42 13.76 4.25 17.45 2.56-4.26 7.24-6.39 14.04-6.39zm66.38 0c5.67 0 10.07 1.84 13.19 5.53 3.4 3.4 5.1 7.94 5.1 13.62 0 6.24-1.98 11.06-5.96 14.47-3.68 3.12-9.07 4.68-16.16 4.68-8.8 0-15.75-3.4-20.85-10.21-5.1-6.81-7.66-16.46-7.66-28.95 0-11.91 2.55-22.84 7.66-32.77C79.42 20.86 87.36 10.64 97.85.43c.29-.29.71-.43 1.28-.43.85 0 1.56.43 2.13 1.28.56.85.56 1.56 0 2.12C87.36 17.6 80.4 34.33 80.4 53.63c0 7.94 1.42 13.76 4.26 17.45 2.55-4.26 7.23-6.39 14.04-6.39z" fill="#4770A0"/></svg>
